X:1
T:St. George (Gauntlett), SM
T:St. George (Gauntlett), SM
T:Henry John Gauntlett, 1848
T:Public Domain Courtesy of the Cyber Hymnal™
C:Henry John Gauntlett, 1848
Z:Public Domain
Z:Courtesy of the Cyber Hymnal™
%%score ( 1 2 ) ( 3 4 )
L:1/8
Q:1/4=113
M:4/4
K:C
V:1 treble 
V:2 treble 
V:3 bass 
V:4 bass 
V:1
 [CE]2 | [CF]2 [CA]2 [CG]2 [CF]2 | [CE]6 [Ge]2 | [Gd]2 [Ec]2 [Gc]2 [GB]2 | [Ec]6 [EG]2 | %5
 [EA]2 [D^F]2 [DG]2 [GB]2 | [Gd]3 [Gd] [Gc]2 [CA]2 | [CG]2 [CE]2 [CD]2 (EF) | [CE]6 |] %9
V:2
 x2 | x8 | x8 | x8 | x8 | x8 | x8 | x6 B,2 | x6 |] %9
V:3
 [C,G,]2 | [F,A,]2 F,2 [E,G,]2 [D,G,]2 | [C,G,]6 C2 | [G,B,]2 [A,C]2 [G,D]2 [G,D]2 | %4
 [C,C]6 [E,B,]2 | [C,C]2 [D,A,]2 [G,B,]2 [G,D]2 | [F,B,]3 [F,B,] [E,C]2 [F,C]2 | %7
 [E,G,]2 [C,G,]2 [G,,G,]2 [G,,G,]2 | [C,G,]6 |] %9
V:4
 x2 | x8 | x6 C2 | x8 | x8 | x8 | x8 | x8 | x6 |] %9

